symbols/web/not_accessible/materialsymbolsrounded/not_accessible_gradN25_40px.svg

<svg xmlns="http://www.w3.org/2000/svg" height="40" width="40"><path d="M30.042 20.958q-1.834-.333-3.646-1.27-1.813-.938-3.271-2.23L23 17.375v1.875l-5.708-5.667q.333-.791 1.041-1.291.709-.5 1.709-.5.791 0 1.396.291.604.292 1.312 1l1.458 1.625Q25.375 16 27 17.042q1.625 1.041 3.333 1.291.5.125.834.479.333.355.333.813 0 .625-.438 1.021-.437.396-1.02.312ZM20.083 9.75q-1.291 0-2.187-.917Q17 7.917 17 6.667q0-1.292.896-2.188.896-.896 2.187-.896 1.25 0 2.167.896.917.896.917 2.188 0 1.25-.917 2.166-.917.917-2.167.917ZM32.5 36.292l-8.333-8.334h-4.084q-1.291 0-2.166-.896-.875-.895-.875-2.145v-4.125L3.708 7.458q-.416-.375-.396-.916.021-.542.438-.959.375-.375.917-.375.541 0 .916.375l28.834 28.792q.375.417.375.958 0 .542-.417.959-.375.375-.917.375-.541 0-.958-.375Zm-15.917.166q-3.375 0-5.729-2.354T8.5 28.375q0-3.042 2.104-5.313 2.104-2.27 5.104-2.645v2.666q-2.041.334-3.291 1.917t-1.25 3.375q0 2.25 1.562 3.833 1.563 1.584 3.854 1.584 1.917 0 3.459-1.25 1.541-1.25 1.791-3.292h2.709q-.417 3.125-2.709 5.167-2.291 2.041-5.25 2.041Z"/></svg>

<svg xmlns="http://www.w3.org/2000/svg" height="40" width="40"><path d="M30.042 20.958Q28.208 20.625 26.396 19.688Q24.583 18.75 23.125 17.458L23 17.375V19.25L17.292 13.583Q17.625 12.792 18.333 12.292Q19.042 11.792 20.042 11.792Q20.833 11.792 21.438 12.083Q22.042 12.375 22.75 13.083L24.208 14.708Q25.375 16 27 17.042Q28.625 18.083 30.333 18.333Q30.833 18.458 31.167 18.812Q31.5 19.167 31.5 19.625Q31.5 20.25 31.062 20.646Q30.625 21.042 30.042 20.958ZM20.083 9.75Q18.792 9.75 17.896 8.833Q17 7.917 17 6.667Q17 5.375 17.896 4.479Q18.792 3.583 20.083 3.583Q21.333 3.583 22.25 4.479Q23.167 5.375 23.167 6.667Q23.167 7.917 22.25 8.833Q21.333 9.75 20.083 9.75ZM32.5 36.292 24.167 27.958H20.083Q18.792 27.958 17.917 27.062Q17.042 26.167 17.042 24.917V20.792L3.708 7.458Q3.292 7.083 3.312 6.542Q3.333 6 3.75 5.583Q4.125 5.208 4.667 5.208Q5.208 5.208 5.583 5.583L34.417 34.375Q34.792 34.792 34.792 35.333Q34.792 35.875 34.375 36.292Q34 36.667 33.458 36.667Q32.917 36.667 32.5 36.292ZM16.583 36.458Q13.208 36.458 10.854 34.104Q8.5 31.75 8.5 28.375Q8.5 25.333 10.604 23.062Q12.708 20.792 15.708 20.417V23.083Q13.667 23.417 12.417 25Q11.167 26.583 11.167 28.375Q11.167 30.625 12.729 32.208Q14.292 33.792 16.583 33.792Q18.5 33.792 20.042 32.542Q21.583 31.292 21.833 29.25H24.542Q24.125 32.375 21.833 34.417Q19.542 36.458 16.583 36.458Z"/></svg>
